blockchains/ethereum/assets/0xd7c49CEE7E9188cCa6AD8FF264C1DA2e69D4Cf3B/logo.svg

<svg fill="none" height="250" viewBox="0 0 250 250" width="250" xmlns="http://www.w3.org/2000/svg"><rect fill="#35302d" height="250" rx="125" width="250"/><path d="m128.939 207.998c-2.904.439-5.863.439-8.795.028-13.48-1.974-23.6446-15.354-22.1377-28.816.5205-4.579 2.1367-9.596 5.1237-13.188 2-2.412 4.767-4.907 6.603-7.32 2.438-3.18 2.904-7.375 1.918-11.241-1.727-6.827-9.014-11.46-15.9188-10.09-1.5617.302-3.6165.905-4.8769 1.975-2.1096 1.782-4.4659 4.469-6.6029 6.168-4.0002 3.126-8.8496 4.99-13.8909 5.347-10.2743.85-21.0966-4.743-25.6721-14.148-3.2604-6.717-4.1371-14.421-1.3699-21.495.9316-2.33 2.0549-4.661 3.6166-6.635 5.1782-6.635 12.9593-10.7745 21.4801-10.6375 2.9864 0 5.9728.521 8.7948 1.5354 2.4659.8501 4.7673 2.1111 6.8222 3.7011 2.6576 2.166 4.6851 4.743 7.3153 6.8 4.9043 3.811 12.6855 2.741 17.0965-1.673 3.315-3.29 4.795-8.006 3.945-12.6117-.274-1.5902-.904-3.619-1.972-4.8802-2.11-2.4676-5.343-5.5931-7.124-8.3074-2.767-4.1949-4.1918-9.13-4.137-14.1473.0274-5.5931 1.616-11.0766 4.959-15.6278 5.671-7.6769 14.329-11.7894 23.919-10.9669 2.685.2193 5.315.8773 7.808 1.9192 5.452 2.303 9.973 6.3608 12.905 11.4878 1.561 2.7143 2.603 5.7028 3.068 8.8009.987 6.8269-.465 14.5586-4.904 20.0146-2 2.4675-4.548 4.469-6.439 6.8269-3.287 4.1674-3.644 9.8699-1.041 14.6679 2.85 5.155 8.603 7.979 14.412 7.101 1.233-.192 3.945-1.069 4.877-1.809 2.712-2.139 5.534-5.209 8.301-7.184 4.083-2.906 8.685-4.1121 13.672-4.4411 11.452-.7677 22.795 7.1561 26.275 18.0401 1.89 5.868 1.89 12.283-.466 18.068-.959 2.468-2.274 4.771-3.918 6.827-5.699 7.019-13.37 10.391-22.412 9.953-4.493-.22-10.657-2.221-14.137-5.1-2.575-2.111-5.233-5.456-7.809-7.238-4.959-3.427-12.137-2.66-16.575 1.755-3.206 3.153-4.823 7.347-4.247 11.871.219 1.728.767 3.976 1.89 5.374 2.192 2.714 5.014 5.484 7.096 8.307 3.233 4.36 4.494 9.761 4.521 15.135.055 12.283-9.726 24.127-21.973 25.854z" fill="#fff"/><g fill="#35302d"><path d="m127.978 197.279c6.192-1.371 10.521-6.142 11.891-12.201 1.836-8.116-3.781-16.807-11.891-18.589-6.356-1.398-12.192.823-16.137 5.895-4.11 5.236-3.973 12.529-.603 18.068 2.137 3.509 5.945 6.059 9.918 6.854 2.658.493 4.219.466 6.822-.027zm-.986-4.99c-1.425.356-2.932.383-4.384.164-5.26-.905-9.26-5.922-8.877-11.268.356-4.552 3.507-8.417 7.918-9.651 2.439-.686 5.014-.466 7.316.603 4.246 2.001 6.904 6.827 6.109 11.515-.712 4.058-4.027 7.677-8.082 8.637z"/><path d="m128.439 83.7138c4.082-.7951 7.726-3.1255 10.082-6.5527 1.261-1.7547 2.11-3.7561 2.548-5.8673 1.288-6.8268-1.671-12.7215-7.26-16.5051-4.904-3.3449-12.274-3.0707-17.069.3564-1.726 1.2064-3.178 2.7143-4.356 4.4416-2.302 3.5368-2.987 7.622-2.247 11.7071 1.068 5.977 6.082 11.0766 11.973 12.3104 2.082.4112 4.247.4661 6.329.1096zm-1.452-4.8802c-4.274.6854-8.548-1.6725-10.74-5.3464-2.795-4.6883-1.206-11.4055 3.424-14.3118 3.754-2.3853 8.576-2.2756 12.193.3016 3.315 2.3031 5.15 6.8543 4.246 10.8298-1.013 4.5513-4.52 7.7591-9.123 8.5268z"/><path d="m72.3302 139.703c2.4111-.796 3.8358-1.371 5.8633-3.071 1.4247-1.234 2.6576-2.687 3.6439-4.277 1.1781-1.865 1.6439-3.784 2.0275-5.868.3836-2.083-.0548-4.331-.5206-6.36-1.0411-4.552-4.8494-8.5-9.0688-10.2-5.3974-2.193-11.6442-1.398-16.1101 2.358-3.37 2.824-5.4249 6.882-5.6988 11.269-.4658 6.717 3.6165 12.721 9.5893 15.491 3.2604 1.48 6.9318 1.562 10.2743.658zm-2.9316-4.579c-4.3563.576-9.3701-2.056-10.9866-6.224-1.9453-5.045-.7672-10.693 4.1371-13.571 3.8083-2.303 8.6578-2.057 12.1922.658 3.37 2.495 5.0413 7.43 3.7535 11.46-1.2603 4.113-4.822 7.101-9.0962 7.677z"/><path d="m185.541 140.907c4.246-1.042 7.835-3.811 9.973-7.594 3.013-5.511 2.438-11.982-1.096-17.081-3.398-4.908-9.562-6.964-15.234-6.142-6.384.905-11.808 6.224-12.877 12.503-1.507 9.02 3.918 16.889 12.877 18.588 2.137.357 4.302.275 6.357-.274zm-.959-4.907c-1.288.301-2.603.383-3.891.246-4.603-.493-8.74-4.14-9.48-8.773-.657-4.085 1.096-8.417 4.603-10.748 3.398-2.248 8.247-2.495 11.727-.192 3.397 2.249 5.561 6.279 4.931 10.446-.63 4.277-3.698 7.842-7.89 9.021z"/></g></svg>

<svg width="250" height="250" viewBox="0 0 250 250" fill="none" xmlns="http://www.w3.org/2000/svg">
<rect width="250" height="250" rx="125" fill="#35302D"/>
<path d="M128.939 207.998C126.035 208.437 123.076 208.437 120.144 208.026C106.664 206.052 96.4994 192.672 98.0063 179.21C98.5268 174.631 100.143 169.614 103.13 166.022C105.13 163.61 107.897 161.115 109.733 158.702C112.171 155.522 112.637 151.327 111.651 147.461C109.924 140.634 102.637 136.001 95.7322 137.371C94.1705 137.673 92.1157 138.276 90.8553 139.346C88.7457 141.128 86.3894 143.815 84.2524 145.514C80.2522 148.64 75.4028 150.504 70.3615 150.861C60.0872 151.711 49.2649 146.118 44.6894 136.713C41.429 129.996 40.5523 122.292 43.3195 115.218C44.2511 112.888 45.3744 110.557 46.9361 108.583C52.1143 101.948 59.8954 97.8085 68.4162 97.9455C71.4026 97.9455 74.389 98.4665 77.211 99.4809C79.6769 100.331 81.9783 101.592 84.0332 103.182C86.6908 105.348 88.7183 107.925 91.3485 109.982C96.2528 113.793 104.034 112.723 108.445 108.309C111.76 105.019 113.24 100.303 112.39 95.6973C112.116 94.1071 111.486 92.0783 110.418 90.8171C108.308 88.3495 105.075 85.224 103.294 82.5097C100.527 78.3148 99.1022 73.3797 99.157 68.3624C99.1844 62.7693 100.773 57.2858 104.116 52.7346C109.787 45.0577 118.445 40.9452 128.035 41.7677C130.72 41.987 133.35 42.645 135.843 43.6869C141.295 45.9899 145.816 50.0477 148.748 55.1747C150.309 57.889 151.351 60.8775 151.816 63.9756C152.803 70.8025 151.351 78.5342 146.912 83.9902C144.912 86.4577 142.364 88.4592 140.473 90.8171C137.186 94.9845 136.829 100.687 139.432 105.485C142.282 110.64 148.035 113.464 153.844 112.586C155.077 112.394 157.789 111.517 158.721 110.777C161.433 108.638 164.255 105.568 167.022 103.593C171.105 100.687 175.707 99.4809 180.694 99.1519C192.146 98.3842 203.489 106.308 206.969 117.192C208.859 123.06 208.859 129.475 206.503 135.26C205.544 137.728 204.229 140.031 202.585 142.087C196.886 149.106 189.215 152.478 180.173 152.04C175.68 151.82 169.516 149.819 166.036 146.94C163.461 144.829 160.803 141.484 158.227 139.702C153.268 136.275 146.09 137.042 141.652 141.457C138.446 144.61 136.829 148.804 137.405 153.328C137.624 155.056 138.172 157.304 139.295 158.702C141.487 161.416 144.309 164.186 146.391 167.009C149.624 171.369 150.885 176.77 150.912 182.144C150.967 194.427 141.186 206.271 128.939 207.998Z" fill="white"/>
<path d="M127.978 197.279C134.17 195.908 138.499 191.137 139.869 185.078C141.705 176.962 136.088 168.271 127.978 166.489C121.622 165.091 115.786 167.312 111.841 172.384C107.731 177.62 107.868 184.913 111.238 190.452C113.375 193.961 117.183 196.511 121.156 197.306C123.814 197.799 125.375 197.772 127.978 197.279ZM126.992 192.289C125.567 192.645 124.06 192.672 122.608 192.453C117.348 191.548 113.348 186.531 113.731 181.185C114.087 176.633 117.238 172.768 121.649 171.534C124.088 170.848 126.663 171.068 128.965 172.137C133.211 174.138 135.869 178.964 135.074 183.652C134.362 187.71 131.047 191.329 126.992 192.289Z" fill="#35302D"/>
<path d="M128.439 83.7138C132.521 82.9187 136.165 80.5883 138.521 77.1611C139.782 75.4064 140.631 73.405 141.069 71.2938C142.357 64.467 139.398 58.5723 133.809 54.7887C128.905 51.4438 121.535 51.718 116.74 55.1451C115.014 56.3515 113.562 57.8594 112.384 59.5867C110.082 63.1235 109.397 67.2087 110.137 71.2938C111.205 77.2708 116.219 82.3704 122.11 83.6042C124.192 84.0154 126.357 84.0703 128.439 83.7138ZM126.987 78.8336C122.713 79.519 118.439 77.1611 116.247 73.4872C113.452 68.7989 115.041 62.0817 119.671 59.1754C123.425 56.7901 128.247 56.8998 131.864 59.477C135.179 61.7801 137.014 66.3313 136.11 70.3068C135.097 74.8581 131.59 78.0659 126.987 78.8336Z" fill="#35302D"/>
<path d="M72.3302 139.703C74.7413 138.907 76.166 138.332 78.1935 136.632C79.6182 135.398 80.8511 133.945 81.8374 132.355C83.0155 130.49 83.4813 128.571 83.8649 126.487C84.2485 124.404 83.8101 122.156 83.3443 120.127C82.3032 115.575 78.4949 111.627 74.2755 109.927C68.8781 107.734 62.6313 108.529 58.1654 112.285C54.7954 115.109 52.7405 119.167 52.4666 123.554C52.0008 130.271 56.0831 136.275 62.0559 139.045C65.3163 140.525 68.9877 140.607 72.3302 139.703ZM69.3986 135.124C65.0423 135.7 60.0285 133.068 58.412 128.9C56.4667 123.855 57.6448 118.207 62.5491 115.329C66.3574 113.026 71.2069 113.272 74.7413 115.987C78.1113 118.482 79.7826 123.417 78.4948 127.447C77.2345 131.56 73.6728 134.548 69.3986 135.124Z" fill="#35302D"/>
<path d="M185.541 140.907C189.787 139.865 193.376 137.096 195.514 133.313C198.527 127.802 197.952 121.331 194.418 116.232C191.02 111.324 184.856 109.268 179.184 110.09C172.8 110.995 167.376 116.314 166.307 122.593C164.8 131.613 170.225 139.482 179.184 141.181C181.321 141.538 183.486 141.456 185.541 140.907ZM184.582 136C183.294 136.301 181.979 136.383 180.691 136.246C176.088 135.753 171.951 132.106 171.211 127.473C170.554 123.388 172.307 119.056 175.814 116.725C179.212 114.477 184.061 114.23 187.541 116.533C190.938 118.782 193.102 122.812 192.472 126.979C191.842 131.256 188.774 134.821 184.582 136Z" fill="#35302D"/>
</svg>
